!! 00000] TT[WS
!!!OTL: Zhuyngtai xiashan
!!!ARE: Asia, China, Shanxi Yuanping
!! Ethnic Group: Han
!! WII, 199
!!!SCT: J0700
!!!YEM: Copyright 1995, estate of Helmut Schaffrath.
**kern
*ICvox
*Ivox
*M2/4
*k[b-]
*F:
{8cc
8a
8cc
8dd
=1
8a
8g
8cc
8a
=2
8cc
8cc
8e
8f
=3
2g}
=4
{4cc
8a
8a
=5
8g
8d
4f
=6
8e
8e
8d
8f
=7
2g}
=8
{4cc
4cc
=9
8a
8cc
8dd
8dd
=10
8ff
8a
[4cc
=11
4cc]
8a
8cc}
=12
{8ff
8dd
4cc
=13
8a
8cc
8g
8g
=14
8a
8cc
4g
=15
4cc
8g
8f
=16
8c
8d
8f
8d
=17
2f}
==
!!!AGN: Xiaodiao, Shidiao. XÅshi
!!!ONB: ESAC (Essen Associative Code) Database: CHINA
!!!AMT: simple duple
!!!AIN: vox
!!!EED: Helmut Schaffrath
!!!EEV: 1.0
*-
!!!ONB: Tied note syntax fixed by Craig Sapp, 2004/05/03/
